X: 3
T: Dancin' With My Sweetie
M: 4/4
L: 1/8
R: barndance
K: Dmaj
|: a2 ^g2 =g2 |\ 
f2 f>g f>e d2 | f>^ef>g f>=ed>f | e>^de>f g>fg>e | B2 e2 ^d2 =d2 | 
c2 c>d c>B A2 | c>=c^c>d c>BA>c |[1 d>cd>e f>ed>B | A2 :|[2 d>cd>e f<ed>c | d2 ||
A2 ^G2 =G2 |\ 
F>DA,>D F2 F2 | E>^DE>G B2 B2 | c>=c^c>B A>ce>c | d>cd<f a>A^G>=G | 
F>DA,>D F2 F2 | E>^DE>G B>e^d>=d | c>=c^c>B A>gf>e | d2 A2 ^G2 =G2 |
F>DA,>D F2 F2 | E>^DE>G B2 B2 | c>=c^c>B A>ce>c | d>cd<f A>a^g>=g | 
f>dA>d f>Aa>f | g>ec>e b2 ^a>b | (3aba c'>b (3aba (3gfe | d2 ||
|: a2 ^g2 =g2 |\ 
(3fgf f>g f>e d>A | f>^ef>g f>=e (3def | e>^de>f g>f (3gfe | B2 e2 ^d2 =d2 | 
(3cdc c>d c>B A2 | c>=c^c>d c>B (3ABc |[1 d>cd>e f<ed>B | A2 :|[2 d>cd>e f<ed>c | d2 ||
a2 ^g2 =g2 |\ 
f>dA>d f2 f2 | e>^de>g B2 B2 | c>=c^c>B A>ce>c | d>cd<f A>a^g>=g |
f>dA>d f2 f2 | e>^de>g B>e^d>=d | c>=c^c>B A>gf>e | d2 a2 ^g2 =g2 |
f>dA>d f2 f2 | e>^de>g B2 B2 | c>=c^c>B A>ce>c | d>cd<f A>a^g>=g |
f>dA>d f>Aa>f | g>ec>e b2 ^a>b | (3aba c'>b (3aba (3gfe | d2 ||
|: a2 ^g2 =g2 |\ 
f>^ef>g f>=ed>e | f2 (3^efg f>=e d2 | e2 (3^def g>fg>e | B2 e2 ^d2 =d2 | 
c>=c^c>d c>B A2 | c2 (3=c^cd c>BA>c |[1 d2 d>e f>ed>B | A2 :|[2 d2 (3cde f2 (3edc | d2 ||
A2 ^G2 =G2 |\ 
F>DA,>D F2 F2 | E>^DE>G B,2 B,2 | C>=C^C>B, A,>CE>C | D>CD<F A2 (3A^G=G | 
F>DA,>D F2 F2 | E>^DE>G B,>E^D>=D | C>=C^C>B, A,2 (3GFE | D2 A2 ^G2 =G2 |
F>DA,>D F2 F2 | E>^DE>G B,2 B,2 | C>=C^C>B, A,>CE>C | D>CD<F A>a^g>=g |
f>dA>d f>Aa>f | g>ec>e b2 ^a>b | (3aba c'>b (3aba (3gfe | d2 A2 D4 |]
